;START_OF_HEADER
;HEADER_VERSION:0.1
;FLAVOR:Griffin
;GENERATOR.NAME:Cura_SteamEngine
;GENERATOR.VERSION:5.2.2
;GENERATOR.BUILD_DATE:2023-01-24
;TARGET_MACHINE.NAME:Ultimaker 3
;EXTRUDER_TRAIN.0.INITIAL_TEMPERATURE:200
;EXTRUDER_TRAIN.0.MATERIAL.VOLUME_USED:23152
;EXTRUDER_TRAIN.0.MATERIAL.GUID:506c9f0d-e3aa-4bd4-b2d2-23e2425b1aa9
;EXTRUDER_TRAIN.0.NOZZLE.DIAMETER:0.4
;EXTRUDER_TRAIN.0.NOZZLE.NAME:AA 0.4
;BUILD_PLATE.INITIAL_TEMPERATURE:60
;PRINT.TIME:12131
;PRINT.GROUPS:1
;PRINT.SIZE.MIN.X:9
;PRINT.SIZE.MIN.Y:6
;PRINT.SIZE.MIN.Z:0.2
;PRINT.SIZE.MAX.X:198.432
;PRINT.SIZE.MAX.Y:122.489
;PRINT.SIZE.MAX.Z:7.9
;SLICE_UUID:d5074729-b865-4670-b277-b402b9610d22
;END_OF_HEADER
;Generated with Cura_SteamEngine 5.2.2
T0
M82 ;absolute extrusion mode

G92 E0
M109 S200
G0 F15000 X9 Y6 Z2
G280
G1 F1500 E-6.5
;LAYER_COUNT:39
;LAYER:0
M106 S255
M204 S1000
M205 X20 Y20
G1 F600 Z2.2
G0 F15000 X38.096 Y59.381 Z2.2
;TYPE:SKIRT
G1 F600 Z0.2
G1 F1500 E0
G1 F1350 X38.77 Y59.057 E0.00938
G1 X39.475 Y58.807 E0.01876
G1 X40.203 Y58.633 E0.02814
G1 X40.945 Y58.538 E0.03753
G1 X41.462 Y58.519 E0.04401
G1 X191.432 Y58.519 E1.92469
G1 X192.179 Y58.559 E1.93407
G1 X192.917 Y58.678 E1.94345
G1 X193.639 Y58.876 E1.95284
G1 X194.335 Y59.149 E1.96221
G1 X194.998 Y59.496 E1.9716
G1 X195.621 Y59.911 E1.98098
G1 X196.195 Y60.39 E1.99036
G1 X196.716 Y60.927 E1.99974
G1 X197.175 Y61.517 E2.00912
G1 X197.57 Y62.153 E2.0185
G1 X197.894 Y62.827 E2.02788
G1 X198.144 Y63.532 E2.03726
G1 X198.318 Y64.26 E2.04665
G1 X198.413 Y65.002 E2.05603
G1 X198.432 Y65.519 E2.06252
G1 X198.432 Y115.489 E2.68916
G1 X198.392 Y116.236 E2.69854
G1 X198.273 Y116.974 E2.70792
G1 X198.075 Y117.696 E2.7173
G1 X197.802 Y118.392 E2.72668
G1 X197.455 Y119.055 E2.73606
G1 X197.04 Y119.678 E2.74545
G1 X196.561 Y120.252 E2.75483
G1 X196.024 Y120.773 E2.76421
G1 X195.434 Y121.232 E2.77358
G1 X194.798 Y121.627 E2.78297
G1 X194.124 Y121.951 E2.79235
G1 X193.419 Y122.201 E2.80173
G1 X192.691 Y122.375 E2.81112
G1 X191.949 Y122.47 E2.8205
G1 X191.432 Y122.489 E2.82699
G1 X41.462 Y122.489 E4.70767
G1 X40.715 Y122.449 E4.71705
G1 X39.977 Y122.33 E4.72642
G1 X39.255 Y122.132 E4.73581
G1 X38.559 Y121.859 E4.74519
G1 X37.896 Y121.512 E4.75457
G1 X37.273 Y121.097 E4.76396
G1 X36.699 Y120.618 E4.77333
G1 X36.178 Y120.081 E4.78271
G1 X35.719 Y119.491 E4.79209
G1 X35.324 Y118.855 E4.80148
G1 X35 Y118.181 E4.81086
G1 X34.75 Y117.476 E4.82024
G1 X34.576 Y116.748 E4.82962
G1 X34.481 Y116.006 E4.839
G1 X34.462 Y115.489 E4.84549
G1 X34.462 Y65.519 E5.47213
G1 X34.502 Y64.772 E5.48151
G1 X34.621 Y64.034 E5.49089
G1 X34.819 Y63.312 E5.50028
G1 X35.092 Y62.616 E5.50965
G1 X35.439 Y61.953 E5.51904
G1 X35.854 Y61.33 E5.52842
G1 X36.333 Y60.756 E5.5378
G1 X36.87 Y60.235 E5.54718
G1 X37.46 Y59.776 E5.55656
G1 X38.096 Y59.381 E5.56595
G0 F15000 X38.475 Y59.634
G1 F1350 X39.14 Y59.341 E5.57506
G1 X39.833 Y59.123 E5.58417
G1 X40.545 Y58.983 E5.59327
G1 X41.462 Y58.919 E5.6048
G1 X191.432 Y58.919 E7.48548
G1 X192.157 Y58.959 E7.49458
G1 X192.874 Y59.078 E7.5037
G1 X193.573 Y59.276 E7.51281
G1 X194.246 Y59.549 E7.52191
G1 X194.885 Y59.894 E7.53102
G1 X195.482 Y60.308 E7.54013
G1 X196.03 Y60.784 E7.54923
G1 X196.523 Y61.318 E7.55835
G1 X196.953 Y61.903 E7.56745
G1 X197.317 Y62.532 E7.57657
G1 X197.61 Y63.197 E7.58568
G1 X197.828 Y63.89 E7.59479
G1 X197.968 Y64.602 E7.60389
G1 X198.032 Y65.519 E7.61542
G1 X198.032 Y115.489 E8.24206
G1 X197.992 Y116.214 E8.25116
G1 X197.873 Y116.931 E8.26028
G1 X197.675 Y117.63 E8.26939
G1 X197.402 Y118.303 E8.2785
G1 X197.057 Y118.942 E8.2876
G1 X196.643 Y119.539 E8.29671
G1 X196.167 Y120.087 E8.30582
G1 X195.633 Y120.58 E8.31493
G1 X195.048 Y121.01 E8.32404
G1 X194.419 Y121.374 E8.33315
G1 X193.754 Y121.667 E8.34226
G1 X193.061 Y121.885 E8.35137
G1 X192.349 Y122.025 E8.36047
G1 X191.432 Y122.089 E8.372
G1 X41.462 Y122.089 E10.25268
G1 X40.737 Y122.049 E10.26178
G1 X40.02 Y121.93 E10.2709
G1 X39.321 Y121.732 E10.28001
G1 X38.648 Y121.459 E10.28912
G1 X38.009 Y121.114 E10.29822
G1 X37.412 Y120.7 E10.30733
G1 X36.864 Y120.224 E10.31644
G1 X36.371 Y119.69 E10.32555
G1 X35.941 Y119.105 E10.33466
G1 X35.577 Y118.476 E10.34377
G1 X35.284 Y117.811 E10.35288
G1 X35.066 Y117.118 E10.36199
G1 X34.926 Y116.406 E10.37109
G1 X34.862 Y115.489 E10.38262
G1 X34.862 Y65.519 E11.00926
G1 X34.902 Y64.794 E11.01837
G1 X35.021 Y64.077 E11.02748
G1 X35.219 Y63.378 E11.03659
G1 X35.492 Y62.705 E11.0457
G1 X35.837 Y62.066 E11.05481
G1 X36.251 Y61.469 E11.06392
G1 X36.727 Y60.921 E11.07302
G1 X37.261 Y60.428 E11.08213
G1 X37.846 Y59.998 E11.09124
G1 X38.475 Y59.634 E11.10035
G0 F15000 X38.851 Y59.896
G1 F1350 X39.505 Y59.636 E11.10918
G1 X40.185 Y59.452 E11.11801
G1 X40.881 Y59.346 E11.12684
G1 X41.462 Y59.319 E11.13413
G1 X191.432 Y59.319 E13.01481
G1 X192.135 Y59.359 E13.02364
G1 X192.829 Y59.478 E13.03247
G1 X193.504 Y59.676 E13.0413
G1 X194.153 Y59.948 E13.05012
G1 X194.767 Y60.293 E13.05895
G1 X195.338 Y60.704 E13.06777
G1 X195.859 Y61.178 E13.07661
G1 X196.323 Y61.708 E13.08544
G1 X196.723 Y62.287 E13.09427
G1 X197.055 Y62.908 E13.1031
G1 X197.315 Y63.562 E13.11192
G1 X197.499 Y64.242 E13.12076
G1 X197.605 Y64.938 E13.12959
G1 X197.632 Y65.519 E13.13688
G1 X197.632 Y115.489 E13.76352
G1 X197.592 Y116.192 E13.77235
G1 X197.473 Y116.886 E13.78118
G1 X197.275 Y117.561 E13.79
G1 X197.003 Y118.21 E13.79883
G1 X196.658 Y118.824 E13.80766
G1 X196.247 Y119.395 E13.81648
G1 X195.773 Y119.916 E13.82532
G1 X195.243 Y120.38 E13.83415
G1 X194.664 Y120.78 E13.84297
G1 X194.043 Y121.112 E13.8518
G1 X193.389 Y121.372 E13.86063
G1 X192.709 Y121.556 E13.86946
G1 X192.013 Y121.662 E13.87829
G1 X191.432 Y121.689 E13.88559
G1 X41.462 Y121.689 E15.76627
G1 X40.759 Y121.649 E15.7751
G1 X40.065 Y121.53 E15.78393
G1 X39.39 Y121.332 E15.79275
G1 X38.741 Y121.06 E15.80157
G1 X38.127 Y120.715 E15.8104
G1 X37.556 Y120.304 E15.81923
G1 X37.035 Y119.83 E15.82806
G1 X36.571 Y119.3 E15.83689
G1 X36.171 Y118.721 E15.84572
G1 X35.839 Y118.1 E15.85455
G1 X35.579 Y117.446 E15.86338
G1 X35.395 Y116.766 E15.87221
G1 X35.289 Y116.07 E15.88104
G1 X35.262 Y115.489 E15.88833
G1 X35.262 Y65.519 E16.51497
G1 X35.302 Y64.816 E16.5238
G1 X35.421 Y64.122 E16.53263
G1 X35.619 Y63.447 E16.54146
G1 X35.891 Y62.798 E16.55028
G1 X36.236 Y62.184 E16.55911
G1 X36.647 Y61.613 E16.56793
G1 X37.121 Y61.092 E16.57677
G1 X37.651 Y60.628 E16.5856
G1 X38.23 Y60.228 E16.59443
G1 X38.851 Y59.896 E16.60326
G0 F15000 X39.224 Y60.168
G1 F1350 X39.866 Y59.943 E16.61179
G1 X40.531 Y59.794 E16.62033
G1 X41.462 Y59.719 E16.63205
G1 X191.432 Y59.719 E18.51273
G1 X192.112 Y59.759 E18.52127
G1 X192.782 Y59.878 E18.5298
G1 X193.434 Y60.075 E18.53834
G1 X194.058 Y60.347 E18.54688
G1 X194.646 Y60.691 E18.55542
G1 X195.19 Y61.101 E18.56397
G1 X195.681 Y61.572 E18.5725
G1 X196.115 Y62.097 E18.58104
G1 X196.484 Y62.669 E18.58958
G1 X196.783 Y63.281 E18.59812
G1 X197.008 Y63.923 E18.60665
G1 X197.157 Y64.588 E18.61519
G1 X197.232 Y65.519 E18.62691
G1 X197.232 Y115.489 E19.25355
G1 X197.192 Y116.169 E19.26209
G1 X197.073 Y116.839 E19.27063
G1 X196.876 Y117.491 E19.27917
G1 X196.604 Y118.115 E19.2877
G1 X196.26 Y118.703 E19.29625
G1 X195.85 Y119.247 E19.30479
G1 X195.379 Y119.738 E19.31332
G1 X194.854 Y120.172 E19.32186
G1 X194.282 Y120.541 E19.3304
G1 X193.67 Y120.84 E19.33894
G1 X193.028 Y121.065 E19.34747
G1 X192.363 Y121.214 E19.35602
G1 X191.432 Y121.289 E19.36773
G1 X41.462 Y121.289 E21.24841
G1 X40.782 Y121.249 E21.25695
G1 X40.112 Y121.13 E21.26549
G1 X39.46 Y120.933 E21.27403
G1 X38.836 Y120.661 E21.28256
G1 X38.248 Y120.317 E21.29111
G1 X37.704 Y119.907 E21.29965
G1 X37.213 Y119.436 E21.30818
G1 X36.779 Y118.911 E21.31672
G1 X36.41 Y118.339 E21.32526
G1 X36.111 Y117.727 E21.3338
G1 X35.886 Y117.085 E21.34233
G1 X35.737 Y116.42 E21.35088
G1 X35.662 Y115.489 E21.36259
G1 X35.662 Y65.519 E21.98923
G1 X35.702 Y64.839 E21.99778
G1 X35.821 Y64.169 E22.00631
G1 X36.018 Y63.517 E22.01485
G1 X36.29 Y62.893 E22.02339
G1 X36.634 Y62.305 E22.03193
G1 X37.044 Y61.761 E22.04047
G1 X37.515 Y61.27 E22.04901
G1 X38.04 Y60.836 E22.05755
G1 X38.612 Y60.467 E22.06608
G1 X39.224 Y60.168 E22.07463
G0 F15000 X39.593 Y60.453
G1 F1350 X40.222 Y60.263 E22.08286
G1 X40.869 Y60.152 E22.0911
G1 X41.462 Y60.119 E22.09855
G1 X191.432 Y60.119 E23.97922
G1 X192.088 Y60.159 E23.98747
G1 X192.734 Y60.278 E23.9957
G1 X193.361 Y60.475 E24.00395
G1 X193.959 Y60.747 E24.01218
G1 X194.52 Y61.089 E24.02042
G1 X195.035 Y61.497 E24.02866
G1 X195.497 Y61.964 E24.0369
G1 X195.898 Y62.484 E24.04514
G1 X196.234 Y63.048 E24.05337
G1 X196.498 Y63.65 E24.06161
G1 X196.688 Y64.279 E24.06985
G1 X196.799 Y64.926 E24.07808
G1 X196.832 Y65.519 E24.08553
G1 X196.832 Y115.489 E24.71217
G1 X196.792 Y116.145 E24.72042
G1 X196.673 Y116.791 E24.72865
G1 X196.476 Y117.418 E24.73689
G1 X196.204 Y118.016 E24.74513
G1 X195.862 Y118.577 E24.75337
G1 X195.454 Y119.092 E24.76161
G1 X194.987 Y119.554 E24.76985
G1 X194.467 Y119.955 E24.77808
G1 X193.903 Y120.291 E24.78632
G1 X193.301 Y120.555 E24.79456
G1 X192.672 Y120.745 E24.8028
G1 X192.025 Y120.856 E24.81103
G1 X191.432 Y120.889 E24.81848
G1 X41.462 Y120.889 E26.69916
G1 X40.806 Y120.849 E26.7074
G1 X40.16 Y120.73 E26.71564
G1 X39.533 Y120.533 E26.72388
G1 X38.935 Y120.261 E26.73212
G1 X38.374 Y119.919 E26.74036
G1 X37.859 Y119.511 E26.7486
G1 X37.397 Y119.044 E26.75684
G1 X36.996 Y118.524 E26.76507
G1 X36.66 Y117.96 E26.7733
G1 X36.396 Y117.358 E26.78155
G1 X36.206 Y116.729 E26.78979
G1 X36.095 Y116.082 E26.79802
G1 X36.062 Y115.489 E26.80547
G1 X36.062 Y65.519 E27.43211
G1 X36.102 Y64.863 E27.44035
G1 X36.221 Y64.217 E27.44859
G1 X36.418 Y63.59 E27.45683
G1 X36.69 Y62.992 E27.46507
G1 X37.032 Y62.431 E27.47331
G1 X37.44 Y61.916 E27.48155
G1 X37.907 Y61.454 E27.48979
G1 X38.427 Y61.053 E27.49802
G1 X38.991 Y60.717 E27.50625
G1 X39.593 Y60.453 E27.5145
G0 F15000 X39.957 Y60.751
G1 F1350 X40.571 Y60.599 E27.52243
G1 X41.462 Y60.519 E27.53365
G1 X191.432 Y60.519 E29.41433
G1 X192.063 Y60.559 E29.42226
G1 X192.684 Y60.678 E29.43018
G1 X193.284 Y60.875 E29.4381
G1 X193.856 Y61.146 E29.44604
G1 X194.388 Y61.486 E29.45396
G1 X194.873 Y61.892 E29.46189
G1 X195.303 Y62.355 E29.46981
G1 X195.672 Y62.869 E29.47775
G1 X195.972 Y63.425 E29.48567
G1 X196.2 Y64.014 E29.49359
G1 X196.352 Y64.628 E29.50152
G1 X196.432 Y65.519 E29.51274
G1 X196.432 Y115.489 E30.13939
G1 X196.392 Y116.12 E30.14731
G1 X196.273 Y116.741 E30.15524
G1 X196.076 Y117.341 E30.16316
G1 X195.805 Y117.913 E30.1711
G1 X195.465 Y118.445 E30.17902
G1 X195.059 Y118.93 E30.18695
G1 X194.596 Y119.36 E30.19487
G1 X194.082 Y119.729 E30.20281
G1 X193.526 Y120.029 E30.21073
G1 X192.937 Y120.257 E30.21865
G1 X192.323 Y120.409 E30.22658
G1 X191.432 Y120.489 E30.2378
G1 X41.462 Y120.489 E32.11848
G1 X40.831 Y120.449 E32.12641
G1 X40.21 Y120.33 E32.13434
G1 X39.61 Y120.133 E32.14226
G1 X39.038 Y119.862 E32.1502
G1 X38.506 Y119.522 E32.15811
G1 X38.021 Y119.116 E32.16605
G1 X37.591 Y118.653 E32.17397
G1 X37.222 Y118.139 E32.1819
G1 X36.922 Y117.583 E32.18983
G1 X36.694 Y116.994 E32.19775
G1 X36.542 Y116.38 E32.20568
G1 X36.462 Y115.489 E32.2169
G1 X36.462 Y65.519 E32.84354
G1 X36.502 Y64.888 E32.85147
G1 X36.621 Y64.267 E32.8594
G1 X36.818 Y63.667 E32.86732
G1 X37.089 Y63.095 E32.87526
G1 X37.429 Y62.563 E32.88317
G1 X37.835 Y62.078 E32.8911
G1 X38.298 Y61.648 E32.89903
G1 X38.812 Y61.279 E32.90696
G1 X39.368 Y60.979 E32.91489
G1 X39.957 Y60.751 E32.92281
G0 F15000 X40.316 Y61.064
G1 F1350 X40.912 Y60.952 E32.93041
G1 X41.462 Y60.919 E32.93732
G1 X191.432 Y60.919 E34.818
G1 X192.037 Y60.959 E34.8256
G1 X192.631 Y61.078 E34.8332
G1 X193.205 Y61.274 E34.84081
G1 X193.748 Y61.545 E34.84842
G1 X194.251 Y61.884 E34.85602
G1 X194.704 Y62.286 E34.86362
G1 X195.101 Y62.744 E34.87122
G1 X195.434 Y63.251 E34.87883
G1 X195.698 Y63.797 E34.88643
G1 X195.887 Y64.373 E34.89403
G1 X195.999 Y64.969 E34.90164
G1 X196.032 Y65.519 E34.90855
G1 X196.032 Y115.489 E35.53519
G1 X195.992 Y116.094 E35.5428
G1 X195.873 Y116.688 E35.55039
G1 X195.677 Y117.262 E35.558
G1 X195.406 Y117.805 E35.56561
G1 X195.067 Y118.308 E35.57322
G1 X194.665 Y118.761 E35.58081
G1 X194.207 Y119.158 E35.58841
G1 X193.7 Y119.491 E35.59602
G1 X193.154 Y119.755 E35.60362
G1 X192.578 Y119.944 E35.61123
G1 X191.982 Y120.056 E35.61883
G1 X191.432 Y120.089 E35.62574
G1 X41.462 Y120.089 E37.50642
G1 X40.857 Y120.049 E37.51402
G1 X40.263 Y119.93 E37.52162
G1 X39.689 Y119.734 E37.52923
G1 X39.146 Y119.463 E37.53684
G1 X38.643 Y119.124 E37.54444
G1 X38.19 Y118.722 E37.55204
G1 X37.793 Y118.264 E37.55964
G1 X37.46 Y117.757 E37.56725
G1 X37.196 Y117.211 E37.57485
G1 X37.007 Y116.635 E37.58245
G1 X36.895 Y116.039 E37.59006
G1 X36.862 Y115.489 E37.59697
G1 X36.862 Y65.519 E38.22361
G1 X36.902 Y64.914 E38.23121
G1 X37.021 Y64.32 E38.23881
G1 X37.217 Y63.746 E38.24642
G1 X37.488 Y63.203 E38.25403
G1 X37.827 Y62.7 E38.26163
G1 X38.229 Y62.247 E38.26923
G1 X38.687 Y61.85 E38.27683
G1 X39.194 Y61.517 E38.28444
G1 X39.74 Y61.253 E38.29204
G1 X40.316 Y61.064 E38.29964
G0 F15000 X40.667 Y61.395
G1 F1350 X41.462 Y61.319 E38.30966
G1 X191.432 Y61.319 E40.19034
G1 X192.01 Y61.359 E40.1976
G1 X192.577 Y61.478 E40.20487
G1 X193.122 Y61.674 E40.21213
G1 X193.635 Y61.943 E40.2194
G1 X194.106 Y62.28 E40.22666
G1 X194.526 Y62.679 E40.23392
G1 X194.888 Y63.132 E40.2412
G1 X195.183 Y63.63 E40.24845
G1 X195.408 Y64.164 E40.25572
G1 X195.556 Y64.724 E40.26299
G1 X195.632 Y65.519 E40.273
G1 X195.632 Y115.489 E40.89964
G1 X195.592 Y116.067 E40.90691
G1 X195.473 Y116.634 E40.91417
G1 X195.277 Y117.179 E40.92144
G1 X195.008 Y117.692 E40.9287
G1 X194.671 Y118.163 E40.93596
G1 X194.272 Y118.583 E40.94323
G1 X193.819 Y118.945 E40.9505
G1 X193.321 Y119.24 E40.95776
G1 X192.787 Y119.465 E40.96503
G1 X192.227 Y119.613 E40.97229
G1 X191.432 Y119.689 E40.9823
G1 X41.462 Y119.689 E42.86298
G1 X40.884 Y119.649 E42.87025
G1 X40.317 Y119.53 E42.87751
G1 X39.772 Y119.334 E42.88478
G1 X39.259 Y119.065 E42.89204
G1 X38.788 Y118.728 E42.8993
G1 X38.368 Y118.329 E42.90657
G1 X38.006 Y117.876 E42.91384
G1 X37.711 Y117.378 E42.9211
G1 X37.486 Y116.844 E42.92837
G1 X37.338 Y116.284 E42.93563
G1 X37.262 Y115.489 E42.94564
G1 X37.262 Y65.519 E43.57229
G1 X37.302 Y64.941 E43.57955
G1 X37.421 Y64.374 E43.58682
G1 X37.617 Y63.829 E43.59408
G1 X37.886 Y63.316 E43.60135
G1 X38.223 Y62.845 E43.60861
G1 X38.622 Y62.425 E43.61587
G1 X39.075 Y62.063 E43.62314
G1 X39.573 Y61.768 E43.6304
G1 X40.107 Y61.543 E43.63767
G1 X40.667 Y61.395 E43.64493
G0 F15000 X40.468 Y61.851
G1 F1350 X41.148 Y61.719 E43.65362
G1 X191.432 Y61.719 E45.53824
G1 X191.982 Y61.759 E45.54515
G1 X192.52 Y61.878 E45.55206
G1 X193.035 Y62.074 E45.55897
G1 X193.516 Y62.342 E45.56588
G1 X193.954 Y62.676 E45.57279
G1 X194.338 Y63.071 E45.57969
G1 X194.662 Y63.517 E45.58661
G1 X194.917 Y64.005 E45.59351
G1 X195.1 Y64.525 E45.60042
G1 X195.232 Y65.205 E45.60911
G1 X195.232 Y115.489 E46.23969
G1 X195.192 Y116.039 E46.24661
G1 X195.073 Y116.577 E46.25352
G1 X194.877 Y117.092 E46.26043
G1 X194.609 Y117.573 E46.26733
G1 X194.275 Y118.011 E46.27424
G1 X193.88 Y118.395 E46.28115
G1 X193.434 Y118.719 E46.28806
G1 X192.946 Y118.974 E46.29497
G1 X192.426 Y119.157 E46.30188
G1 X191.746 Y119.289 E46.31056
G1 X41.462 Y119.289 E48.19518
G1 X40.912 Y119.249 E48.2021
G1 X40.374 Y119.13 E48.20901
G1 X39.859 Y118.934 E48.21592
G1 X39.378 Y118.666 E48.22282
G1 X38.94 Y118.332 E48.22973
G1 X38.556 Y117.937 E48.23664
G1 X38.232 Y117.491 E48.24355
G1 X37.977 Y117.003 E48.25046
G1 X37.794 Y116.483 E48.25737
G1 X37.662 Y115.803 E48.26606
G1 X37.662 Y65.519 E48.89664
