;START_OF_HEADER
;HEADER_VERSION:0.1
;FLAVOR:Griffin
;GENERATOR.NAME:Cura_SteamEngine
;GENERATOR.VERSION:5.2.2
;GENERATOR.BUILD_DATE:2023-01-24
;TARGET_MACHINE.NAME:Ultimaker S3
;EXTRUDER_TRAIN.0.INITIAL_TEMPERATURE:200
;EXTRUDER_TRAIN.0.MATERIAL.VOLUME_USED:23226
;EXTRUDER_TRAIN.0.MATERIAL.GUID:506c9f0d-e3aa-4bd4-b2d2-23e2425b1aa9
;EXTRUDER_TRAIN.0.NOZZLE.DIAMETER:0.4
;EXTRUDER_TRAIN.0.NOZZLE.NAME:AA 0.4
;BUILD_PLATE.INITIAL_TEMPERATURE:60
;PRINT.TIME:11575
;PRINT.GROUPS:1
;PRINT.SIZE.MIN.X:32.892
;PRINT.SIZE.MIN.Y:46.049
;PRINT.SIZE.MIN.Z:0.2
;PRINT.SIZE.MAX.X:197.002
;PRINT.SIZE.MAX.Y:109.959
;PRINT.SIZE.MAX.Z:7.9
;SLICE_UUID:7ff6a51f-7190-4c3b-8ce0-6d908bdc9d06
;END_OF_HEADER
;Generated with Cura_SteamEngine 5.2.2
T0
M82 ;absolute extrusion mode

G92 E0
M109 S200
G280 S1
G0 Z20.001
G1 F2700 E-6.5
;LAYER_COUNT:39
;LAYER:0
M106 S255
M204 S1000
M205 X20 Y20
G1 F600 Z2.2
G0 F9000 X190.002 Y109.959 Z2.2
;TYPE:SKIRT
G1 F600 Z0.2
G1 F2700 E0
G1 F1035 X39.892 Y109.959 E1.88244
G1 X39.145 Y109.919 E1.89182
G1 X38.407 Y109.8 E1.90119
G1 X37.685 Y109.602 E1.91058
G1 X36.989 Y109.329 E1.91995
G1 X36.326 Y108.982 E1.92934
G1 X35.703 Y108.567 E1.93873
G1 X35.129 Y108.088 E1.9481
G1 X34.608 Y107.551 E1.95748
G1 X34.149 Y106.961 E1.96686
G1 X33.754 Y106.325 E1.97625
G1 X33.43 Y105.651 E1.98562
G1 X33.18 Y104.946 E1.99501
G1 X33.006 Y104.218 E2.00439
G1 X32.911 Y103.476 E2.01377
G1 X32.892 Y102.959 E2.02026
G1 X32.892 Y53.049 E2.64615
G1 X32.932 Y52.302 E2.65553
G1 X33.051 Y51.564 E2.66491
G1 X33.249 Y50.842 E2.67429
G1 X33.522 Y50.146 E2.68367
G1 X33.869 Y49.483 E2.69305
G1 X34.284 Y48.86 E2.70244
G1 X34.763 Y48.286 E2.71182
G1 X35.3 Y47.765 E2.7212
G1 X35.89 Y47.306 E2.73057
G1 X36.526 Y46.911 E2.73996
G1 X37.2 Y46.587 E2.74934
G1 X37.905 Y46.337 E2.75872
G1 X38.633 Y46.163 E2.76811
G1 X39.375 Y46.068 E2.77749
G1 X39.892 Y46.049 E2.78398
G1 X190.002 Y46.049 E4.66641
G1 X190.749 Y46.089 E4.67579
G1 X191.487 Y46.208 E4.68517
G1 X192.209 Y46.406 E4.69455
G1 X192.905 Y46.679 E4.70393
G1 X193.568 Y47.026 E4.71331
G1 X194.191 Y47.441 E4.7227
G1 X194.765 Y47.92 E4.73208
G1 X195.286 Y48.457 E4.74146
G1 X195.745 Y49.047 E4.75083
G1 X196.14 Y49.683 E4.76022
G1 X196.464 Y50.357 E4.7696
G1 X196.714 Y51.062 E4.77898
G1 X196.888 Y51.79 E4.78837
G1 X196.983 Y52.532 E4.79775
G1 X197.002 Y53.049 E4.80424
G1 X197.002 Y102.959 E5.43013
G1 X196.962 Y103.706 E5.43951
G1 X196.843 Y104.444 E5.44888
G1 X196.645 Y105.166 E5.45827
G1 X196.372 Y105.862 E5.46765
G1 X196.025 Y106.525 E5.47703
G1 X195.61 Y107.148 E5.48642
G1 X195.131 Y107.722 E5.49579
G1 X194.594 Y108.243 E5.50518
G1 X194.004 Y108.702 E5.51455
G1 X193.368 Y109.097 E5.52394
G1 X192.694 Y109.421 E5.53332
G1 X191.989 Y109.671 E5.5427
G1 X191.261 Y109.845 E5.55208
G1 X190.519 Y109.94 E5.56146
G1 X190.002 Y109.959 E5.56795
G0 F9000 X190.002 Y109.559
G1 F1035 X39.892 Y109.559 E7.45039
G1 X39.167 Y109.519 E7.45949
G1 X38.45 Y109.4 E7.46861
G1 X37.751 Y109.202 E7.47772
G1 X37.078 Y108.929 E7.48682
G1 X36.439 Y108.584 E7.49593
G1 X35.842 Y108.17 E7.50504
G1 X35.294 Y107.694 E7.51414
G1 X34.801 Y107.16 E7.52326
G1 X34.371 Y106.575 E7.53236
G1 X34.007 Y105.946 E7.54148
G1 X33.714 Y105.281 E7.55059
G1 X33.496 Y104.588 E7.5597
G1 X33.356 Y103.876 E7.5688
G1 X33.292 Y102.959 E7.58033
G1 X33.292 Y53.049 E8.20622
G1 X33.332 Y52.324 E8.21532
G1 X33.451 Y51.607 E8.22444
G1 X33.649 Y50.908 E8.23355
G1 X33.922 Y50.235 E8.24266
G1 X34.267 Y49.596 E8.25176
G1 X34.681 Y48.999 E8.26087
G1 X35.157 Y48.451 E8.26998
G1 X35.691 Y47.958 E8.27909
G1 X36.276 Y47.528 E8.28819
G1 X36.905 Y47.164 E8.29731
G1 X37.57 Y46.871 E8.30642
G1 X38.263 Y46.653 E8.31553
G1 X38.975 Y46.513 E8.32463
G1 X39.892 Y46.449 E8.33616
G1 X190.002 Y46.449 E10.21859
G1 X190.727 Y46.489 E10.2277
G1 X191.444 Y46.608 E10.23681
G1 X192.143 Y46.806 E10.24592
G1 X192.816 Y47.079 E10.25503
G1 X193.455 Y47.424 E10.26414
G1 X194.052 Y47.838 E10.27325
G1 X194.6 Y48.314 E10.28235
G1 X195.093 Y48.848 E10.29147
G1 X195.523 Y49.433 E10.30057
G1 X195.887 Y50.062 E10.30968
G1 X196.18 Y50.727 E10.3188
G1 X196.398 Y51.42 E10.32791
G1 X196.538 Y52.132 E10.33701
G1 X196.602 Y53.049 E10.34853
G1 X196.602 Y102.959 E10.97442
G1 X196.562 Y103.684 E10.98353
G1 X196.443 Y104.401 E10.99264
G1 X196.245 Y105.1 E11.00175
G1 X195.972 Y105.773 E11.01086
G1 X195.627 Y106.412 E11.01997
G1 X195.213 Y107.009 E11.02908
G1 X194.737 Y107.557 E11.03818
G1 X194.203 Y108.05 E11.0473
G1 X193.618 Y108.48 E11.0564
G1 X192.989 Y108.844 E11.06551
G1 X192.324 Y109.137 E11.07463
G1 X191.631 Y109.355 E11.08374
G1 X190.919 Y109.495 E11.09284
G1 X190.002 Y109.559 E11.10436
G0 F9000 X190.002 Y109.159
G1 F1035 X39.892 Y109.159 E12.9868
G1 X39.189 Y109.119 E12.99563
G1 X38.495 Y109 E13.00446
G1 X37.82 Y108.802 E13.01328
G1 X37.171 Y108.53 E13.02211
G1 X36.557 Y108.185 E13.03094
G1 X35.986 Y107.774 E13.03976
G1 X35.465 Y107.3 E13.04859
G1 X35.001 Y106.77 E13.05743
G1 X34.601 Y106.191 E13.06625
G1 X34.269 Y105.57 E13.07508
G1 X34.009 Y104.916 E13.08391
G1 X33.825 Y104.236 E13.09274
G1 X33.719 Y103.54 E13.10157
G1 X33.692 Y102.959 E13.10887
G1 X33.692 Y53.049 E13.73476
G1 X33.732 Y52.346 E13.74359
G1 X33.851 Y51.652 E13.75242
G1 X34.049 Y50.977 E13.76124
G1 X34.321 Y50.328 E13.77006
G1 X34.666 Y49.714 E13.77889
G1 X35.077 Y49.143 E13.78772
G1 X35.551 Y48.622 E13.79655
G1 X36.081 Y48.158 E13.80538
G1 X36.66 Y47.758 E13.81421
G1 X37.281 Y47.426 E13.82304
G1 X37.935 Y47.166 E13.83186
G1 X38.615 Y46.982 E13.8407
G1 X39.311 Y46.876 E13.84953
G1 X39.892 Y46.849 E13.85682
G1 X190.002 Y46.849 E15.73926
G1 X190.705 Y46.889 E15.74809
G1 X191.399 Y47.008 E15.75692
G1 X192.074 Y47.206 E15.76574
G1 X192.723 Y47.478 E15.77456
G1 X193.337 Y47.823 E15.78339
G1 X193.908 Y48.234 E15.79222
G1 X194.429 Y48.708 E15.80105
G1 X194.893 Y49.238 E15.80988
G1 X195.293 Y49.817 E15.81871
G1 X195.625 Y50.438 E15.82754
G1 X195.885 Y51.092 E15.83636
G1 X196.069 Y51.772 E15.8452
G1 X196.175 Y52.468 E15.85403
G1 X196.202 Y53.049 E15.86132
G1 X196.202 Y102.959 E16.48721
G1 X196.162 Y103.662 E16.49604
G1 X196.043 Y104.356 E16.50487
G1 X195.845 Y105.031 E16.51369
G1 X195.573 Y105.68 E16.52252
G1 X195.228 Y106.294 E16.53135
G1 X194.817 Y106.865 E16.54017
G1 X194.343 Y107.386 E16.549
G1 X193.813 Y107.85 E16.55784
G1 X193.234 Y108.25 E16.56666
G1 X192.613 Y108.582 E16.57549
G1 X191.959 Y108.842 E16.58432
G1 X191.279 Y109.026 E16.59315
G1 X190.583 Y109.132 E16.60198
G1 X190.002 Y109.159 E16.60928
G0 F9000 X190.002 Y108.759
G1 F1035 X39.892 Y108.759 E18.49171
G1 X39.212 Y108.719 E18.50025
G1 X38.542 Y108.6 E18.50879
G1 X37.89 Y108.403 E18.51733
G1 X37.266 Y108.131 E18.52587
G1 X36.678 Y107.787 E18.53441
G1 X36.134 Y107.377 E18.54295
G1 X35.643 Y106.906 E18.55148
G1 X35.209 Y106.381 E18.56002
G1 X34.84 Y105.809 E18.56856
G1 X34.541 Y105.197 E18.5771
G1 X34.316 Y104.555 E18.58563
G1 X34.167 Y103.89 E18.59418
G1 X34.092 Y102.959 E18.60589
G1 X34.092 Y53.049 E19.23178
G1 X34.132 Y52.369 E19.24032
G1 X34.251 Y51.699 E19.24886
G1 X34.448 Y51.047 E19.2574
G1 X34.72 Y50.423 E19.26594
G1 X35.064 Y49.835 E19.27448
G1 X35.474 Y49.291 E19.28302
G1 X35.945 Y48.8 E19.29155
G1 X36.47 Y48.366 E19.3001
G1 X37.042 Y47.997 E19.30863
G1 X37.654 Y47.698 E19.31717
G1 X38.296 Y47.473 E19.3257
G1 X38.961 Y47.324 E19.33425
G1 X39.892 Y47.249 E19.34596
G1 X190.002 Y47.249 E21.2284
G1 X190.682 Y47.289 E21.23694
G1 X191.352 Y47.408 E21.24547
G1 X192.004 Y47.605 E21.25402
G1 X192.628 Y47.877 E21.26255
G1 X193.216 Y48.221 E21.2711
G1 X193.76 Y48.631 E21.27964
G1 X194.251 Y49.102 E21.28817
G1 X194.685 Y49.627 E21.29671
G1 X195.054 Y50.199 E21.30525
G1 X195.353 Y50.811 E21.31379
G1 X195.578 Y51.453 E21.32232
G1 X195.727 Y52.118 E21.33087
G1 X195.802 Y53.049 E21.34258
G1 X195.802 Y102.959 E21.96847
G1 X195.762 Y103.639 E21.97701
G1 X195.643 Y104.309 E21.98555
G1 X195.446 Y104.961 E21.99409
G1 X195.174 Y105.585 E22.00262
G1 X194.83 Y106.173 E22.01117
G1 X194.42 Y106.717 E22.01971
G1 X193.949 Y107.208 E22.02824
G1 X193.424 Y107.642 E22.03678
G1 X192.852 Y108.011 E22.04532
G1 X192.24 Y108.31 E22.05386
G1 X191.598 Y108.535 E22.06239
G1 X190.933 Y108.684 E22.07094
G1 X190.002 Y108.759 E22.08265
G0 F9000 X190.002 Y108.359
G1 F1035 X39.892 Y108.359 E23.96509
G1 X39.236 Y108.319 E23.97333
G1 X38.59 Y108.2 E23.98157
G1 X37.963 Y108.003 E23.98981
G1 X37.365 Y107.731 E23.99805
G1 X36.804 Y107.389 E24.00628
G1 X36.289 Y106.981 E24.01452
G1 X35.827 Y106.514 E24.02276
G1 X35.426 Y105.994 E24.031
G1 X35.09 Y105.43 E24.03923
G1 X34.826 Y104.828 E24.04747
G1 X34.636 Y104.199 E24.05571
G1 X34.525 Y103.552 E24.06394
G1 X34.492 Y102.959 E24.07139
G1 X34.492 Y53.049 E24.69728
G1 X34.532 Y52.393 E24.70552
G1 X34.651 Y51.747 E24.71376
G1 X34.848 Y51.12 E24.722
G1 X35.12 Y50.522 E24.73024
G1 X35.462 Y49.961 E24.73848
G1 X35.87 Y49.446 E24.74672
G1 X36.337 Y48.984 E24.75496
G1 X36.857 Y48.583 E24.76319
G1 X37.421 Y48.247 E24.77143
G1 X38.023 Y47.983 E24.77967
G1 X38.652 Y47.793 E24.78791
G1 X39.299 Y47.682 E24.79614
G1 X39.892 Y47.649 E24.80359
G1 X190.002 Y47.649 E26.68602
G1 X190.658 Y47.689 E26.69427
G1 X191.304 Y47.808 E26.7025
G1 X191.931 Y48.005 E26.71075
G1 X192.529 Y48.277 E26.71898
G1 X193.09 Y48.619 E26.72722
G1 X193.605 Y49.027 E26.73546
G1 X194.067 Y49.494 E26.7437
G1 X194.468 Y50.014 E26.75194
G1 X194.804 Y50.578 E26.76017
G1 X195.068 Y51.18 E26.76841
G1 X195.258 Y51.809 E26.77665
G1 X195.369 Y52.456 E26.78488
G1 X195.402 Y53.049 E26.79233
G1 X195.402 Y102.959 E27.41822
G1 X195.362 Y103.615 E27.42646
G1 X195.243 Y104.261 E27.4347
G1 X195.046 Y104.888 E27.44294
G1 X194.774 Y105.486 E27.45118
G1 X194.432 Y106.047 E27.45942
G1 X194.024 Y106.562 E27.46766
G1 X193.557 Y107.024 E27.4759
G1 X193.037 Y107.425 E27.48413
G1 X192.473 Y107.761 E27.49237
G1 X191.871 Y108.025 E27.50061
G1 X191.242 Y108.215 E27.50885
G1 X190.595 Y108.326 E27.51708
G1 X190.002 Y108.359 E27.52453
G0 F9000 X190.002 Y107.959
G1 F1035 X39.892 Y107.959 E29.40696
G1 X39.261 Y107.919 E29.41489
G1 X38.64 Y107.8 E29.42282
G1 X38.04 Y107.603 E29.43074
G1 X37.468 Y107.332 E29.43868
G1 X36.936 Y106.992 E29.4466
G1 X36.451 Y106.586 E29.45453
G1 X36.021 Y106.123 E29.46245
G1 X35.652 Y105.609 E29.47039
G1 X35.352 Y105.053 E29.47831
G1 X35.124 Y104.464 E29.48623
G1 X34.972 Y103.85 E29.49416
G1 X34.892 Y102.959 E29.50538
G1 X34.892 Y53.049 E30.13127
G1 X34.932 Y52.418 E30.1392
G1 X35.051 Y51.797 E30.14713
G1 X35.248 Y51.197 E30.15505
G1 X35.519 Y50.625 E30.16299
G1 X35.859 Y50.093 E30.1709
G1 X36.265 Y49.608 E30.17883
G1 X36.728 Y49.178 E30.18676
G1 X37.242 Y48.809 E30.19469
G1 X37.798 Y48.509 E30.20262
G1 X38.387 Y48.281 E30.21054
G1 X39.001 Y48.129 E30.21847
G1 X39.892 Y48.049 E30.22969
G1 X190.002 Y48.049 E32.11212
G1 X190.633 Y48.089 E32.12005
G1 X191.254 Y48.208 E32.12798
G1 X191.854 Y48.405 E32.1359
G1 X192.426 Y48.676 E32.14384
G1 X192.958 Y49.016 E32.15175
G1 X193.443 Y49.422 E32.15969
G1 X193.873 Y49.885 E32.16761
G1 X194.242 Y50.399 E32.17555
G1 X194.542 Y50.955 E32.18347
G1 X194.77 Y51.544 E32.19139
G1 X194.922 Y52.158 E32.19932
G1 X195.002 Y53.049 E32.21054
G1 X195.002 Y102.959 E32.83643
G1 X194.962 Y103.59 E32.84436
G1 X194.843 Y104.211 E32.85229
G1 X194.646 Y104.811 E32.86021
G1 X194.375 Y105.383 E32.86814
G1 X194.035 Y105.915 E32.87606
G1 X193.629 Y106.4 E32.88399
G1 X193.166 Y106.83 E32.89192
G1 X192.652 Y107.199 E32.89985
G1 X192.096 Y107.499 E32.90777
G1 X191.507 Y107.727 E32.91569
G1 X190.893 Y107.879 E32.92363
G1 X190.002 Y107.959 E32.93485
G0 F9000 X190.002 Y107.559
G1 F1035 X39.892 Y107.559 E34.81728
G1 X39.287 Y107.519 E34.82488
G1 X38.693 Y107.4 E34.83248
G1 X38.119 Y107.204 E34.84009
G1 X37.576 Y106.933 E34.8477
G1 X37.073 Y106.594 E34.8553
G1 X36.62 Y106.192 E34.8629
G1 X36.223 Y105.734 E34.8705
G1 X35.89 Y105.227 E34.87811
G1 X35.626 Y104.681 E34.88571
G1 X35.437 Y104.105 E34.89331
G1 X35.325 Y103.509 E34.90092
G1 X35.292 Y102.959 E34.90783
G1 X35.292 Y53.049 E35.53372
G1 X35.332 Y52.444 E35.54132
G1 X35.451 Y51.85 E35.54892
G1 X35.647 Y51.276 E35.55653
G1 X35.918 Y50.733 E35.56414
G1 X36.257 Y50.23 E35.57174
G1 X36.659 Y49.777 E35.57934
G1 X37.117 Y49.38 E35.58694
G1 X37.624 Y49.047 E35.59455
G1 X38.17 Y48.783 E35.60215
G1 X38.746 Y48.594 E35.60975
G1 X39.342 Y48.482 E35.61736
G1 X39.892 Y48.449 E35.62427
G1 X190.002 Y48.449 E37.5067
G1 X190.607 Y48.489 E37.51431
G1 X191.201 Y48.608 E37.5219
G1 X191.775 Y48.804 E37.52951
G1 X192.318 Y49.075 E37.53712
G1 X192.821 Y49.414 E37.54473
G1 X193.274 Y49.816 E37.55232
G1 X193.671 Y50.274 E37.55992
G1 X194.004 Y50.781 E37.56753
G1 X194.268 Y51.327 E37.57513
G1 X194.457 Y51.903 E37.58274
G1 X194.569 Y52.499 E37.59034
G1 X194.602 Y53.049 E37.59725
G1 X194.602 Y102.959 E38.22314
G1 X194.562 Y103.564 E38.23074
G1 X194.443 Y104.158 E38.23834
G1 X194.247 Y104.732 E38.24595
G1 X193.976 Y105.275 E38.25356
G1 X193.637 Y105.778 E38.26116
G1 X193.235 Y106.231 E38.26876
G1 X192.777 Y106.628 E38.27636
G1 X192.27 Y106.961 E38.28397
G1 X191.724 Y107.225 E38.29157
G1 X191.148 Y107.414 E38.29918
G1 X190.552 Y107.526 E38.30678
G1 X190.002 Y107.559 E38.31369
G0 F9000 X190.002 Y107.159
G1 F1035 X39.892 Y107.159 E40.19612
G1 X39.314 Y107.119 E40.20339
G1 X38.747 Y107 E40.21066
G1 X38.202 Y106.804 E40.21792
G1 X37.689 Y106.535 E40.22518
G1 X37.218 Y106.198 E40.23245
G1 X36.798 Y105.799 E40.23971
G1 X36.436 Y105.346 E40.24698
G1 X36.141 Y104.848 E40.25424
G1 X35.916 Y104.314 E40.26151
G1 X35.768 Y103.754 E40.26877
G1 X35.692 Y102.959 E40.27879
G1 X35.692 Y53.049 E40.90468
G1 X35.732 Y52.471 E40.91194
G1 X35.851 Y51.904 E40.91921
G1 X36.047 Y51.359 E40.92647
G1 X36.316 Y50.846 E40.93373
G1 X36.653 Y50.375 E40.941
G1 X37.052 Y49.955 E40.94826
G1 X37.505 Y49.593 E40.95553
G1 X38.003 Y49.298 E40.96279
G1 X38.537 Y49.073 E40.97006
G1 X39.097 Y48.925 E40.97732
G1 X39.892 Y48.849 E40.98734
G1 X190.002 Y48.849 E42.86977
G1 X190.58 Y48.889 E42.87704
G1 X191.147 Y49.008 E42.8843
G1 X191.692 Y49.204 E42.89157
G1 X192.205 Y49.473 E42.89883
G1 X192.676 Y49.81 E42.90609
G1 X193.096 Y50.209 E42.91336
G1 X193.458 Y50.662 E42.92063
G1 X193.753 Y51.16 E42.92789
G1 X193.978 Y51.694 E42.93516
G1 X194.126 Y52.254 E42.94242
G1 X194.202 Y53.049 E42.95243
G1 X194.202 Y102.959 E43.57832
G1 X194.162 Y103.537 E43.58559
G1 X194.043 Y104.104 E43.59285
G1 X193.847 Y104.649 E43.60012
G1 X193.578 Y105.162 E43.60738
G1 X193.241 Y105.633 E43.61464
G1 X192.842 Y106.053 E43.62191
G1 X192.389 Y106.415 E43.62918
G1 X191.891 Y106.71 E43.63644
G1 X191.357 Y106.935 E43.64371
G1 X190.797 Y107.083 E43.65097
G1 X190.002 Y107.159 E43.66099
G0 F9000 X190.316 Y106.759
G1 F1035 X39.892 Y106.759 E45.54736
G1 X39.342 Y106.719 E45.55427
G1 X38.804 Y106.6 E45.56118
G1 X38.289 Y106.404 E45.56809
G1 X37.808 Y106.136 E45.575
G1 X37.37 Y105.802 E45.58191
G1 X36.986 Y105.407 E45.58881
G1 X36.662 Y104.961 E45.59573
G1 X36.407 Y104.473 E45.60263
G1 X36.224 Y103.953 E45.60955
G1 X36.092 Y103.273 E45.61823
G1 X36.092 Y53.049 E46.24806
G1 X36.132 Y52.499 E46.25497
G1 X36.251 Y51.961 E46.26188
G1 X36.447 Y51.446 E46.26879
G1 X36.715 Y50.965 E46.2757
G1 X37.049 Y50.527 E46.28261
G1 X37.444 Y50.143 E46.28952
G1 X37.89 Y49.819 E46.29643
G1 X38.378 Y49.564 E46.30333
G1 X38.898 Y49.381 E46.31025
G1 X39.578 Y49.249 E46.31893
G1 X190.002 Y49.249 E48.20531
G1 X190.552 Y49.289 E48.21222
G1 X191.09 Y49.408 E48.21913
G1 X191.605 Y49.604 E48.22604
G1 X192.086 Y49.872 E48.23295
G1 X192.524 Y50.206 E48.23985
G1 X192.908 Y50.601 E48.24676
G1 X193.232 Y51.047 E48.25368
G1 X193.487 Y51.535 E48.26058
G1 X193.67 Y52.055 E48.26749
G1 X193.802 Y52.735 E48.27618
G1 X193.802 Y102.959 E48.90601
G1 X193.762 Y103.509 E48.91292
